X:1
T:The Wreck on the C&O
M:3/4
L:1/4
K:G
 D| G3| G2 A| B2 B| B3-| B z A| G2 A| G2 E| G3-| G2 z| d2 B| d2 B|\
 d d e| d3-| d z B| A2 A| A A B| A3-| A z B-| d2 B| d2 B| d2- e| d3-|\
 d z B| G2 A| G2 E| G3-| G z D| G2 G| G2 A| B2- B| B3-| B z G/2G/2|\
 A2 A| B- B A| G3-| G z||
